src/assets/images/toolbox/jquery.svg

<svg
  width="34"
  height="32"
  viewBox="0 0 34 32"
  fill="transparent"
  xmlns="http://www.w3.org/2000/svg">
  <path
    fill="#21609B"
    d="M2.16061 7.51504C-0.851209 11.7425 -0.477211 17.2407 1.82486 21.7298C1.87728 21.8392 1.93536 21.943 1.99202 22.0468C2.02461 22.1188 2.06144 22.1852 2.10111 22.2544C2.11952 22.2918 2.14502 22.332 2.16769 22.3679C2.20452 22.4399 2.24419 22.5091 2.28244 22.5784L2.50485 22.9466C2.54735 23.0144 2.5856 23.0808 2.63235 23.1487C2.71169 23.2788 2.80235 23.4075 2.88452 23.5376C2.92135 23.593 2.95535 23.6456 2.99644 23.6996C3.1338 23.9109 3.28033 24.1164 3.4356 24.3156C3.5461 24.4637 3.6566 24.6077 3.7756 24.7516C3.81385 24.8042 3.85776 24.8568 3.89743 24.9108L4.20909 25.2832C4.24876 25.3247 4.28701 25.3759 4.32809 25.4202C4.46693 25.5835 4.61426 25.7427 4.76159 25.9047L4.76867 25.913C4.94856 26.1347 5.15021 26.3387 5.37075 26.5221C5.48409 26.6369 5.59742 26.7505 5.71784 26.8612L5.86092 26.9955C6.01817 27.1408 6.17683 27.2848 6.34258 27.4232C6.34542 27.4232 6.34683 27.426 6.34966 27.4274L6.43041 27.4966C6.57491 27.6198 6.72083 27.743 6.86958 27.8565L7.04666 28.0018C7.16708 28.0959 7.29316 28.1859 7.41499 28.2787L7.60907 28.424C7.74082 28.5209 7.88107 28.6164 8.01566 28.7105C8.06524 28.7451 8.11482 28.7798 8.16582 28.8116L8.20832 28.8434L8.60499 29.0995L8.77498 29.2103C8.98465 29.3404 9.19148 29.465 9.39831 29.5868C9.4564 29.6145 9.51731 29.6477 9.57256 29.6809C9.72556 29.7667 9.88423 29.8539 10.0386 29.9342C10.1236 29.9813 10.2115 30.0214 10.2993 30.0643C10.4056 30.1225 10.5161 30.1792 10.6308 30.2374C10.6582 30.2455 10.6848 30.2562 10.7101 30.2692C10.7569 30.29 10.8008 30.3121 10.8461 30.3343C11.0161 30.4173 11.1932 30.4976 11.3774 30.5765C11.4114 30.5903 11.4482 30.6042 11.4851 30.6236C11.6891 30.7108 11.8945 30.7938 12.1055 30.8755C12.1537 30.8893 12.2047 30.9129 12.2543 30.9309C12.4455 31.0015 12.6425 31.0734 12.8365 31.1413L12.9074 31.1662C13.1255 31.2382 13.3395 31.3074 13.559 31.3738C13.61 31.3877 13.6625 31.4057 13.7163 31.4195C13.943 31.4859 14.1611 31.5648 14.3878 31.6091C28.9411 34.2004 33.1698 23.0587 33.1698 23.0587C29.6169 27.5796 23.3127 28.7714 17.3401 27.4453C17.1191 27.3955 16.8981 27.3263 16.6743 27.2626C16.4047 27.1844 16.1369 27.1004 15.871 27.0107L15.7832 26.9775C15.5905 26.9138 15.4049 26.8432 15.2165 26.7726C15.1653 26.7523 15.1133 26.7338 15.0607 26.7172C14.851 26.6342 14.6499 26.5497 14.4473 26.4625C14.4034 26.4487 14.3665 26.4293 14.3226 26.4127C14.151 26.3357 13.98 26.2572 13.8098 26.1774C13.7588 26.1553 13.7087 26.1313 13.6596 26.1054C13.5265 26.0445 13.3933 25.9739 13.263 25.9075C13.1735 25.8655 13.0851 25.8212 12.998 25.7746C12.8365 25.6915 12.6765 25.6015 12.5164 25.5157C12.4682 25.4825 12.413 25.4548 12.3577 25.4244C12.1484 25.3031 11.941 25.1785 11.7358 25.0506C11.6789 25.0165 11.6231 24.9804 11.5686 24.9426C11.4183 24.8516 11.2709 24.7561 11.1266 24.6561C11.0771 24.6243 11.0317 24.5897 10.9807 24.5551C10.8395 24.4598 10.7002 24.362 10.5628 24.2616C10.5033 24.2145 10.4396 24.1702 10.3758 24.1232C10.2511 24.0263 10.1251 23.9363 10.0004 23.8352L9.83323 23.7037C9.67233 23.5777 9.5141 23.4485 9.35865 23.3162C9.34259 23.3003 9.32504 23.2859 9.30623 23.2732L8.81465 22.8358L8.67299 22.7057C8.55682 22.5894 8.43782 22.4787 8.31882 22.3652L8.17999 22.2268C8.03034 22.0813 7.88438 21.9322 7.74224 21.7796L7.72099 21.7575C7.57082 21.5969 7.42349 21.4322 7.27758 21.2661C7.23933 21.2246 7.20249 21.1775 7.16424 21.1318L6.84266 20.7484C6.67931 20.5433 6.51874 20.3361 6.361 20.1269C3.04885 15.7098 1.85036 9.61078 4.50093 4.60952M11.5035 3.95478C9.32181 7.01533 9.44365 11.1099 11.1436 14.3477C11.4246 14.8924 11.7456 15.4166 12.1041 15.916C12.43 16.3728 12.7898 16.914 13.2275 17.2836C13.3791 17.4525 13.5435 17.6159 13.7149 17.782L13.8424 17.9065C14.0039 18.0588 14.171 18.2069 14.3382 18.3564L14.3609 18.3744C14.5519 18.5374 14.7475 18.6952 14.9474 18.8478C14.9955 18.8797 15.0366 18.917 15.0834 18.9489C15.2817 19.0984 15.4829 19.2423 15.6897 19.3863L15.7109 19.3988C15.7988 19.461 15.8923 19.5178 15.9914 19.5787C16.0311 19.6036 16.0764 19.6368 16.1189 19.6618C16.2691 19.7559 16.4164 19.8445 16.5694 19.9345C16.5935 19.9441 16.6148 19.9566 16.6374 19.9663C16.7649 20.0424 16.9038 20.1158 17.0369 20.1836C17.0837 20.2113 17.129 20.2321 17.1786 20.2584C17.2721 20.304 17.3656 20.3525 17.4577 20.3996L17.503 20.4189C17.6943 20.5117 17.8898 20.5975 18.081 20.6819C18.1292 20.7013 18.1703 20.7166 18.2113 20.7359C18.3686 20.8024 18.5287 20.866 18.6873 20.9256C18.7582 20.9491 18.8248 20.9768 18.8913 20.9976C19.0358 21.0502 19.1888 21.0986 19.3305 21.1471L19.5288 21.2093C19.7371 21.2716 19.9468 21.3533 20.1649 21.3893C31.399 23.2068 34 14.7519 34 14.7519C31.6583 18.0463 27.1264 19.6147 22.297 18.3896C22.0832 18.3357 21.8711 18.2757 21.6609 18.2097C21.5929 18.1903 21.5334 18.1695 21.4682 18.1502C21.3209 18.1003 21.1693 18.0533 21.0262 17.9993L20.8222 17.9245C20.6622 17.8622 20.5007 17.8041 20.3462 17.7377C20.2981 17.7169 20.2542 17.7031 20.2173 17.6823C20.019 17.5951 19.8193 17.5093 19.6252 17.4165L19.3333 17.2684L19.1648 17.1854C19.0377 17.1194 18.9126 17.0502 18.7893 16.9777C18.7591 16.9632 18.7298 16.947 18.7015 16.9293C18.5513 16.8379 18.3941 16.7493 18.251 16.6552C18.2028 16.6289 18.1589 16.597 18.1136 16.5694L17.8189 16.3811C17.6149 16.2427 17.4152 16.0932 17.2126 15.9478C17.1673 15.9077 17.1234 15.8745 17.0794 15.8385C14.9559 14.2078 13.2814 11.9765 12.4866 9.45298C11.6508 6.82708 11.835 3.88418 13.28 1.4936M19.3603 1.29011C18.0725 3.13669 17.9493 5.42899 18.8361 7.46383C19.7782 9.6274 21.7034 11.3259 23.9474 12.1287C24.0395 12.1633 24.1287 12.1924 24.2251 12.2256L24.3497 12.263C24.4801 12.3045 24.6118 12.3502 24.7464 12.3793C30.9528 13.549 32.6329 9.26472 33.0848 8.63628C31.6073 10.7099 29.1295 11.2068 26.0894 10.4842C25.8417 10.4237 25.5977 10.3498 25.3584 10.2628C25.0604 10.1607 24.7682 10.0433 24.4829 9.91117C23.9428 9.65592 23.4295 9.34994 22.9501 8.99757C20.2273 6.98073 18.54 3.13392 20.3165 0"
  />
</svg>

<svg xmlns="http://www.w3.org/2000/svg" width="34" height="32" fill="transparent" xmlns:v="https://vecta.io/nano">
  <path fill="#21609b"
    d="M2.161 7.515c-3.012 4.227-2.638 9.726-.336 14.215.052.109.111.213.167.317.033.072.069.138.109.208.018.037.044.078.067.113.037.072.077.141.115.21l.222.368c.042.068.081.134.128.202.079.13.17.259.252.389.037.055.071.108.112.162.137.211.284.417.439.616.111.148.221.292.34.436.038.053.082.105.122.159l.312.372c.04.041.078.093.119.137.139.163.286.322.433.484l.007.008a4.39 4.39 0 0 0 .602.609 9.96 9.96 0 0 0 .347.339l.143.134c.157.145.316.289.482.428l.088.073a10.54 10.54 0 0 0 .439.36l.177.145c.12.094.247.184.368.277l.194.145c.132.097.272.192.407.287.05.035.099.069.15.101l.043.032.397.256.17.111.623.377c.058.028.119.061.174.094l.466.253c.085.047.173.087.261.13a11.99 11.99 0 0 0 .332.173c.027.008.054.019.079.032.047.021.091.043.136.065a11.81 11.81 0 0 0 .531.242c.034.014.071.028.108.047.204.087.409.17.62.252.048.014.099.037.149.055l.582.21.071.025.652.208c.051.014.104.032.157.046.227.066.445.145.672.19 14.553 2.591 18.782-8.55 18.782-8.55-3.553 4.521-9.857 5.713-15.83 4.387-.221-.05-.442-.119-.666-.183a19.56 19.56 0 0 1-.803-.252l-.088-.033c-.193-.064-.378-.134-.567-.205-.051-.02-.103-.039-.156-.055-.21-.083-.411-.167-.613-.255-.044-.014-.081-.033-.125-.05l-.513-.235a2.18 2.18 0 0 1-.15-.072c-.133-.061-.266-.131-.397-.198a5.65 5.65 0 0 1-.265-.133c-.162-.083-.321-.173-.482-.259-.048-.033-.103-.061-.159-.091a22.59 22.59 0 0 1-.622-.374c-.057-.034-.113-.07-.167-.108-.15-.091-.298-.186-.442-.287-.05-.032-.095-.066-.146-.101-.141-.095-.28-.193-.418-.293-.059-.047-.123-.091-.187-.138L10 23.835l-.167-.131a15.03 15.03 0 0 1-.475-.388c-.016-.016-.034-.03-.052-.043l-.492-.437-.142-.13c-.116-.116-.235-.227-.354-.34l-.139-.138c-.15-.146-.296-.295-.438-.447l-.021-.022c-.15-.161-.297-.325-.443-.491-.038-.042-.075-.089-.113-.134l-.322-.383-.482-.622C3.049 15.71 1.85 9.611 4.501 4.61m7.003-.655c-2.182 3.061-2.06 7.155-.36 10.393a12.58 12.58 0 0 0 .961 1.568c.326.457.686.998 1.123 1.368.152.169.316.332.487.498l.127.125c.162.152.329.3.496.45l.023.018a13.84 13.84 0 0 0 .586.473c.048.032.089.069.136.101a19.75 19.75 0 0 0 .606.437l.021.013c.088.062.181.119.281.18.04.025.085.058.127.083.15.094.297.183.451.273.024.01.045.022.068.032a6.92 6.92 0 0 0 .399.217c.047.028.092.049.142.075l.279.141.045.019c.191.093.387.179.578.263.048.019.089.035.13.054a12.7 12.7 0 0 0 .476.19c.071.024.137.051.204.072.144.053.297.101.439.149l.198.062c.208.062.418.144.636.18C31.399 23.207 34 14.752 34 14.752c-2.342 3.294-6.874 4.863-11.703 3.638a11.54 11.54 0 0 1-.636-.18c-.068-.019-.128-.04-.193-.059l-.442-.151-.204-.075c-.16-.062-.322-.12-.476-.187-.048-.021-.092-.035-.129-.055l-.592-.266-.292-.148-.169-.083c-.127-.066-.252-.135-.375-.208a.9.9 0 0 1-.088-.048c-.15-.091-.307-.18-.45-.274-.048-.026-.092-.058-.137-.086l-.295-.188c-.204-.138-.404-.288-.606-.433-.045-.04-.089-.073-.133-.109-2.123-1.631-3.798-3.862-4.593-6.386-.836-2.626-.652-5.569.793-7.959m6.08-.203c-1.288 1.847-1.411 4.139-.524 6.174.942 2.164 2.867 3.862 5.111 4.665.092.035.181.064.278.097l.125.037c.13.042.262.087.397.116 6.206 1.17 7.886-3.115 8.338-3.743-1.478 2.074-3.955 2.571-6.995 1.848a7 7 0 0 1-.731-.221 9.11 9.11 0 0 1-.875-.352 9.29 9.29 0 0 1-1.533-.914C20.227 6.981 18.54 3.134 20.317 0" />
</svg>
